icons/playmarket.svg

<svg width="130" height="40" viewBox="0 0 130 40" fill="none" xmlns="http://www.w3.org/2000/svg">
    <rect width="130" height="40" rx="4" fill="#E5ECF4" />
    <path fill-rule="evenodd" clip-rule="evenodd"
        d="M42.5143 30.5358C42.1905 30.7882 41.7048 30.9144 41.0572 30.9144C40.6001 30.9144 40.1715 30.8287 39.7715 30.6573C39.3715 30.4858 39.0239 30.2311 38.7286 29.893C38.4334 29.5549 38.2001 29.1358 38.0286 28.6358C37.8572 28.1358 37.7715 27.5525 37.7715 26.8858V24.543C37.7715 23.8954 37.8643 23.3215 38.0501 22.8215C38.2358 22.3215 38.4929 21.9001 38.8215 21.5573C39.1501 21.2144 39.5429 20.9549 40.0001 20.7787C40.4572 20.6025 40.962 20.5144 41.5143 20.5144C42.0858 20.5144 42.5953 20.6073 43.0429 20.793C43.4905 20.9787 43.8715 21.2358 44.1858 21.5644C44.5001 21.893 44.7382 22.2787 44.9001 22.7215C45.062 23.1644 45.1429 23.6382 45.1429 24.143V24.3144H43.2572V24.143C43.2572 23.543 43.1024 23.0882 42.7929 22.7787C42.4834 22.4692 42.0477 22.3144 41.4858 22.3144C40.9524 22.3144 40.5143 22.493 40.1715 22.8501C39.8286 23.2073 39.6572 23.8192 39.6572 24.6858V26.8001C39.6572 28.343 40.2858 29.1144 41.5429 29.1144C42.1048 29.1144 42.531 28.9644 42.8215 28.6644C43.112 28.3644 43.2572 27.962 43.2572 27.4573H40.8572V25.6573H45.1429V30.7144H43.4286V29.6001H43.1715C43.0572 29.9715 42.8382 30.2835 42.5143 30.5358ZM51.0123 30.6715C50.5694 30.8335 50.1052 30.9144 49.6194 30.9144C49.1337 30.9144 48.6694 30.8335 48.2266 30.6715C47.7837 30.5096 47.3909 30.2739 47.048 29.9644C46.7052 29.6549 46.4337 29.2739 46.2337 28.8215C46.0337 28.3692 45.9337 27.8477 45.9337 27.2573V27.0858C45.9337 26.5049 46.0337 25.9882 46.2337 25.5358C46.4337 25.0835 46.7052 24.7001 47.048 24.3858C47.3909 24.0715 47.7837 23.8335 48.2266 23.6715C48.6694 23.5096 49.1337 23.4287 49.6194 23.4287C50.1052 23.4287 50.5694 23.5096 51.0123 23.6715C51.4552 23.8335 51.848 24.0715 52.1909 24.3858C52.5337 24.7001 52.8052 25.0835 53.0052 25.5358C53.2052 25.9882 53.3052 26.5049 53.3052 27.0858V27.2573C53.3052 27.8477 53.2052 28.3692 53.0052 28.8215C52.8052 29.2739 52.5337 29.6549 52.1909 29.9644C51.848 30.2739 51.4552 30.5096 51.0123 30.6715ZM49.6194 29.2001C49.3623 29.2001 49.1194 29.1573 48.8909 29.0715C48.6623 28.9858 48.4623 28.862 48.2909 28.7001C48.1194 28.5382 47.9837 28.3406 47.8837 28.1073C47.7837 27.8739 47.7337 27.6096 47.7337 27.3144V27.0287C47.7337 26.7335 47.7837 26.4692 47.8837 26.2358C47.9837 26.0025 48.1194 25.8049 48.2909 25.643C48.4623 25.4811 48.6623 25.3573 48.8909 25.2715C49.1194 25.1858 49.3623 25.143 49.6194 25.143C49.8766 25.143 50.1194 25.1858 50.348 25.2715C50.5766 25.3573 50.7766 25.4811 50.948 25.643C51.1194 25.8049 51.2552 26.0025 51.3552 26.2358C51.4552 26.4692 51.5052 26.7335 51.5052 27.0287V27.3144C51.5052 27.6096 51.4552 27.8739 51.3552 28.1073C51.2552 28.3406 51.1194 28.5382 50.948 28.7001C50.7766 28.862 50.5766 28.9858 50.348 29.0715C50.1194 29.1573 49.8766 29.2001 49.6194 29.2001ZM59.1174 30.6715C58.6745 30.8335 58.2103 30.9144 57.7245 30.9144C57.2388 30.9144 56.7745 30.8335 56.3317 30.6715C55.8888 30.5096 55.496 30.2739 55.1531 29.9644C54.8103 29.6549 54.5388 29.2739 54.3388 28.8215C54.1388 28.3692 54.0388 27.8477 54.0388 27.2573V27.0858C54.0388 26.5049 54.1388 25.9882 54.3388 25.5358C54.5388 25.0835 54.8103 24.7001 55.1531 24.3858C55.496 24.0715 55.8888 23.8335 56.3317 23.6715C56.7745 23.5096 57.2388 23.4287 57.7245 23.4287C58.2103 23.4287 58.6745 23.5096 59.1174 23.6715C59.5603 23.8335 59.9531 24.0715 60.296 24.3858C60.6388 24.7001 60.9103 25.0835 61.1103 25.5358C61.3103 25.9882 61.4103 26.5049 61.4103 27.0858V27.2573C61.4103 27.8477 61.3103 28.3692 61.1103 28.8215C60.9103 29.2739 60.6388 29.6549 60.296 29.9644C59.9531 30.2739 59.5603 30.5096 59.1174 30.6715ZM57.7245 29.2001C57.4674 29.2001 57.2245 29.1573 56.996 29.0715C56.7674 28.9858 56.5674 28.862 56.396 28.7001C56.2245 28.5382 56.0888 28.3406 55.9888 28.1073C55.8888 27.8739 55.8388 27.6096 55.8388 27.3144V27.0287C55.8388 26.7335 55.8888 26.4692 55.9888 26.2358C56.0888 26.0025 56.2245 25.8049 56.396 25.643C56.5674 25.4811 56.7674 25.3573 56.996 25.2715C57.2245 25.1858 57.4674 25.143 57.7245 25.143C57.9817 25.143 58.2245 25.1858 58.4531 25.2715C58.6817 25.3573 58.8817 25.4811 59.0531 25.643C59.2245 25.8049 59.3603 26.0025 59.4603 26.2358C59.5603 26.4692 59.6103 26.7335 59.6103 27.0287V27.3144C59.6103 27.6096 59.5603 27.8739 59.4603 28.1073C59.3603 28.3406 59.2245 28.5382 59.0531 28.7001C58.8817 28.862 58.6817 28.9858 58.4531 29.0715C58.2245 29.1573 57.9817 29.2001 57.7245 29.2001ZM69.1225 33.2573C68.9177 33.4668 68.6535 33.5715 68.3296 33.5715H63.5582V31.8573H67.2439C67.5011 31.8573 67.6296 31.7144 67.6296 31.4287V29.6858H67.3725C67.2963 29.8477 67.2035 30.0025 67.0939 30.1501C66.9844 30.2977 66.8416 30.4287 66.6654 30.543C66.4892 30.6573 66.2796 30.7477 66.0368 30.8144C65.7939 30.8811 65.5011 30.9144 65.1582 30.9144C64.7201 30.9144 64.313 30.8358 63.9368 30.6787C63.5606 30.5215 63.232 30.2882 62.9511 29.9787C62.6701 29.6692 62.4511 29.2906 62.2939 28.843C62.1368 28.3954 62.0582 27.8811 62.0582 27.3001V27.043C62.0582 26.4715 62.1416 25.962 62.3082 25.5144C62.4749 25.0668 62.7035 24.6882 62.9939 24.3787C63.2844 24.0692 63.6225 23.8335 64.0082 23.6715C64.3939 23.5096 64.8011 23.4287 65.2296 23.4287C65.8011 23.4287 66.2535 23.5358 66.5868 23.7501C66.9201 23.9644 67.182 24.2668 67.3725 24.6573H67.6296V23.6287H69.4296V32.4573C69.4296 32.7811 69.3273 33.0477 69.1225 33.2573ZM65.7439 29.2001C65.182 29.2001 64.7273 29.0263 64.3796 28.6787C64.032 28.3311 63.8582 27.8573 63.8582 27.2573V27.0858C63.8582 26.4858 64.032 26.012 64.3796 25.6644C64.7273 25.3168 65.182 25.143 65.7439 25.143C66.3058 25.143 66.7606 25.3215 67.1082 25.6787C67.4558 26.0358 67.6296 26.5049 67.6296 27.0858V27.2573C67.6296 27.8382 67.4558 28.3073 67.1082 28.6644C66.7606 29.0215 66.3058 29.2001 65.7439 29.2001ZM77.2347 29.0001V30.7144H70.6348V29.0001H73.1205V22.4287H70.7205V20.7144H74.9205V29.0001H77.2347ZM82.1113 30.9144C82.5779 30.9144 82.9851 30.862 83.3327 30.7573C83.6803 30.6525 83.9756 30.5192 84.2184 30.3573C84.4613 30.1954 84.6589 30.0168 84.8113 29.8215C84.9637 29.6263 85.0827 29.4382 85.1684 29.2573L83.6256 28.4001C83.5208 28.6192 83.3494 28.8073 83.1113 28.9644C82.8732 29.1215 82.5303 29.2001 82.0827 29.2001C81.8541 29.2001 81.6375 29.1644 81.4327 29.093C81.2279 29.0215 81.047 28.9215 80.8899 28.793C80.7327 28.6644 80.6089 28.512 80.5184 28.3358C80.4279 28.1596 80.3779 27.9668 80.3684 27.7573H85.5684V26.8001C85.5684 26.4287 85.5018 26.0454 85.3684 25.6501C85.2351 25.2549 85.0256 24.893 84.7399 24.5644C84.4541 24.2358 84.0922 23.9644 83.6541 23.7501C83.216 23.5358 82.6922 23.4287 82.0827 23.4287C81.5875 23.4287 81.1232 23.5168 80.6898 23.693C80.2565 23.8692 79.8779 24.1144 79.5541 24.4287C79.2303 24.743 78.9756 25.1239 78.7899 25.5715C78.6041 26.0192 78.5113 26.5144 78.5113 27.0573V27.143C78.5113 27.7335 78.5994 28.262 78.7756 28.7287C78.9518 29.1954 79.1994 29.5906 79.5184 29.9144C79.8375 30.2382 80.216 30.4858 80.6541 30.6573C81.0922 30.8287 81.5779 30.9144 82.1113 30.9144ZM80.397 26.2144H83.7399C83.6827 25.8811 83.5041 25.6049 83.2041 25.3858C82.9041 25.1668 82.5256 25.0573 82.0684 25.0573C81.6113 25.0573 81.2399 25.1739 80.9541 25.4073C80.6684 25.6406 80.4827 25.9096 80.397 26.2144ZM88.6878 30.7144V26.943H90.7164C91.2307 26.943 91.6783 26.8573 92.0592 26.6858C92.4402 26.5144 92.7569 26.2882 93.0092 26.0073C93.2616 25.7263 93.4521 25.4073 93.5807 25.0501C93.7092 24.693 93.7735 24.3287 93.7735 23.9573V23.6144C93.7735 23.2525 93.7092 22.8977 93.5807 22.5501C93.4521 22.2025 93.2616 21.893 93.0092 21.6215C92.7569 21.3501 92.4402 21.1311 92.0592 20.9644C91.6783 20.7977 91.2307 20.7144 90.7164 20.7144H86.8021V30.7144H88.6878ZM88.6878 25.143H90.5307C90.9497 25.143 91.2807 25.0287 91.5235 24.8001C91.7664 24.5715 91.8878 24.2763 91.8878 23.9144V23.743C91.8878 23.3811 91.7664 23.0858 91.5235 22.8573C91.2807 22.6287 90.9497 22.5144 90.5307 22.5144H88.6878V25.143ZM101.55 30.7144V29.0001H99.2358V20.7144H95.0358V22.4287H97.4358V29.0001H94.9501V30.7144H101.55ZM106.884 30.6358C106.541 30.8215 106.141 30.9144 105.684 30.9144C105.255 30.9144 104.853 30.8335 104.477 30.6715C104.1 30.5096 103.769 30.2715 103.484 29.9573C103.198 29.643 102.972 29.262 102.805 28.8144C102.638 28.3668 102.555 27.8573 102.555 27.2858V27.0573C102.555 26.4954 102.636 25.9906 102.798 25.543C102.96 25.0954 103.179 24.7144 103.455 24.4001C103.731 24.0858 104.053 23.8454 104.419 23.6787C104.786 23.512 105.179 23.4287 105.598 23.4287C106.103 23.4287 106.51 23.5144 106.819 23.6858C107.129 23.8573 107.374 24.1239 107.555 24.4858H107.812V23.6287H109.612V28.5715C109.612 28.8573 109.741 29.0001 109.998 29.0001H110.269V30.7144H109.041C108.717 30.7144 108.453 30.6192 108.248 30.4287C108.043 30.2382 107.941 29.9906 107.941 29.6858H107.684C107.493 30.1335 107.227 30.4501 106.884 30.6358ZM106.084 29.2001C105.56 29.2001 105.141 29.0263 104.827 28.6787C104.512 28.3311 104.355 27.8573 104.355 27.2573V27.0858C104.355 26.4858 104.512 26.012 104.827 25.6644C105.141 25.3168 105.56 25.143 106.084 25.143C106.608 25.143 107.027 25.3168 107.341 25.6644C107.655 26.012 107.812 26.4858 107.812 27.0858V27.2573C107.812 27.8573 107.655 28.3311 107.341 28.6787C107.027 29.0263 106.608 29.2001 106.084 29.2001ZM117.496 33.2573C117.291 33.4668 117.027 33.5715 116.703 33.5715H112.489V31.8573H115.617C115.875 31.8573 116.003 31.7144 116.003 31.4287V29.6858H115.746C115.432 30.5049 114.756 30.9144 113.717 30.9144C113.365 30.9144 113.036 30.8573 112.732 30.743C112.427 30.6287 112.16 30.4525 111.932 30.2144C111.703 29.9763 111.525 29.6787 111.396 29.3215C111.267 28.9644 111.203 28.543 111.203 28.0573V23.6287H113.003V27.6858C113.003 28.1906 113.122 28.5835 113.36 28.8644C113.598 29.1454 113.955 29.2858 114.432 29.2858C114.975 29.2858 115.372 29.112 115.625 28.7644C115.877 28.4168 116.003 27.943 116.003 27.343V23.6287H117.803V32.4573C117.803 32.7811 117.701 33.0477 117.496 33.2573Z"
        fill="#495567" />
    <path fill-rule="evenodd" clip-rule="evenodd"
        d="M55.6177 9.65719C55.7082 9.65719 55.7951 9.63933 55.8784 9.60362C55.9618 9.56791 56.0344 9.52029 56.0963 9.46076C56.1582 9.40124 56.207 9.32981 56.2427 9.24648C56.2784 9.16314 56.2963 9.07386 56.2963 8.97862C56.2963 8.88338 56.2784 8.7941 56.2427 8.71076C56.207 8.62743 56.1582 8.556 56.0963 8.49648C56.0344 8.43695 55.9618 8.38933 55.8784 8.35362C55.7951 8.31791 55.7082 8.30005 55.6177 8.30005C55.5225 8.30005 55.4344 8.31791 55.3534 8.35362C55.2725 8.38933 55.2011 8.43695 55.1392 8.49648C55.0772 8.556 55.0284 8.62743 54.9927 8.71076C54.957 8.7941 54.9392 8.88338 54.9392 8.97862C54.9392 9.07386 54.957 9.16314 54.9927 9.24648C55.0284 9.32981 55.0772 9.40124 55.1392 9.46076C55.2011 9.52029 55.2725 9.56791 55.3534 9.60362C55.4344 9.63933 55.5225 9.65719 55.6177 9.65719ZM39.8289 13.4822C39.667 13.6084 39.4242 13.6715 39.1004 13.6715C38.8718 13.6715 38.6575 13.6286 38.4575 13.5429C38.2575 13.4572 38.0837 13.3298 37.9361 13.1608C37.7885 12.9917 37.6718 12.7822 37.5861 12.5322C37.5004 12.2822 37.4575 11.9905 37.4575 11.6572V10.4858C37.4575 10.162 37.5039 9.87505 37.5968 9.62505C37.6897 9.37505 37.8182 9.16433 37.9825 8.99291C38.1468 8.82148 38.3432 8.69172 38.5718 8.60362C38.8004 8.51553 39.0528 8.47148 39.3289 8.47148C39.6147 8.47148 39.8694 8.51791 40.0932 8.61076C40.317 8.70362 40.5075 8.83219 40.6647 8.99648C40.8218 9.16076 40.9409 9.35362 41.0218 9.57505C41.1028 9.79648 41.1432 10.0334 41.1432 10.2858V10.3715H40.2004V10.2858C40.2004 9.98576 40.123 9.75838 39.9682 9.60362C39.8135 9.44886 39.5956 9.37148 39.3147 9.37148C39.048 9.37148 38.8289 9.46076 38.6575 9.63933C38.4861 9.81791 38.4004 10.1239 38.4004 10.5572V11.6143C38.4004 12.3858 38.7147 12.7715 39.3432 12.7715C39.6242 12.7715 39.8373 12.6965 39.9825 12.5465C40.1278 12.3965 40.2004 12.1953 40.2004 11.9429H39.0004V11.0429H41.1432V13.5715H40.2861V13.0143H40.1575C40.1004 13.2 39.9909 13.356 39.8289 13.4822ZM44.0279 13.5929C43.8541 13.6453 43.6505 13.6715 43.4172 13.6715C43.1505 13.6715 42.9077 13.6286 42.6886 13.5429C42.4696 13.4572 42.2803 13.3334 42.1208 13.1715C41.9613 13.0096 41.8375 12.812 41.7494 12.5786C41.6613 12.3453 41.6172 12.081 41.6172 11.7858V11.7429C41.6172 11.4715 41.6636 11.2239 41.7565 11C41.8494 10.7762 41.9767 10.5858 42.1386 10.4286C42.3005 10.2715 42.4898 10.1489 42.7065 10.0608C42.9232 9.97267 43.1553 9.92862 43.4029 9.92862C43.7077 9.92862 43.9696 9.98219 44.1886 10.0893C44.4077 10.1965 44.5886 10.3322 44.7315 10.4965C44.8744 10.6608 44.9791 10.8417 45.0458 11.0393C45.1125 11.237 45.1458 11.4286 45.1458 11.6143V12.0929H42.5458C42.5505 12.1977 42.5755 12.2941 42.6208 12.3822C42.666 12.4703 42.7279 12.5465 42.8065 12.6108C42.8851 12.675 42.9755 12.725 43.0779 12.7608C43.1803 12.7965 43.2886 12.8143 43.4029 12.8143C43.6267 12.8143 43.7982 12.775 43.9172 12.6965C44.0363 12.6179 44.122 12.5239 44.1744 12.4143L44.9458 12.8429C44.9029 12.9334 44.8434 13.0274 44.7672 13.125C44.691 13.2227 44.5922 13.312 44.4708 13.3929C44.3494 13.4739 44.2017 13.5405 44.0279 13.5929ZM44.2315 11.3215H42.5601C42.6029 11.1691 42.6958 11.0346 42.8386 10.9179C42.9815 10.8012 43.1672 10.7429 43.3958 10.7429C43.6244 10.7429 43.8136 10.7977 43.9636 10.9072C44.1136 11.0167 44.2029 11.1548 44.2315 11.3215ZM48.8055 12.7143V13.5715H47.3055C47.1436 13.5715 47.0114 13.5191 46.909 13.4143C46.8067 13.3096 46.7555 13.1762 46.7555 13.0143V10.8858H45.7055V10.0286H46.7555V8.57148H47.6555V10.0286H48.934V10.8858H47.6555V12.5C47.6555 12.6429 47.7198 12.7143 47.8483 12.7143H48.8055ZM57.1034 12.7143V13.5715H53.9749V12.7143H55.1749V10.8858H54.0606V10.0286H56.0749V12.7143H57.1034ZM60.9631 13.5715V12.7143H60.006C59.8774 12.7143 59.8131 12.6429 59.8131 12.5V10.8858H61.0917V10.0286H59.8131V8.57148H58.9131V10.0286H57.8631V10.8858H58.9131V13.0143C58.9131 13.1762 58.9643 13.3096 59.0667 13.4143C59.1691 13.5191 59.3012 13.5715 59.4631 13.5715H60.9631ZM68.3932 13.55C68.1718 13.631 67.9397 13.6715 67.6968 13.6715C67.4539 13.6715 67.2218 13.631 67.0004 13.55C66.7789 13.4691 66.5825 13.3512 66.4111 13.1965C66.2397 13.0417 66.1039 12.8512 66.0039 12.625C65.9039 12.3989 65.8539 12.1381 65.8539 11.8429V11.7572C65.8539 11.4667 65.9039 11.2084 66.0039 10.9822C66.1039 10.756 66.2397 10.5643 66.4111 10.4072C66.5825 10.25 66.7789 10.131 67.0004 10.05C67.2218 9.9691 67.4539 9.92862 67.6968 9.92862C67.9397 9.92862 68.1718 9.9691 68.3932 10.05C68.6147 10.131 68.8111 10.25 68.9825 10.4072C69.1539 10.5643 69.2897 10.756 69.3897 10.9822C69.4897 11.2084 69.5397 11.4667 69.5397 11.7572V11.8429C69.5397 12.1381 69.4897 12.3989 69.3897 12.625C69.2897 12.8512 69.1539 13.0417 68.9825 13.1965C68.8111 13.3512 68.6147 13.4691 68.3932 13.55ZM67.6968 12.8143C67.5682 12.8143 67.4468 12.7929 67.3325 12.75C67.2182 12.7072 67.1182 12.6453 67.0325 12.5643C66.9468 12.4834 66.8789 12.3846 66.8289 12.2679C66.7789 12.1512 66.7539 12.0191 66.7539 11.8715V11.7286C66.7539 11.581 66.7789 11.4489 66.8289 11.3322C66.8789 11.2155 66.9468 11.1167 67.0325 11.0358C67.1182 10.9548 67.2182 10.8929 67.3325 10.85C67.4468 10.8072 67.5682 10.7858 67.6968 10.7858C67.8254 10.7858 67.9468 10.8072 68.0611 10.85C68.1754 10.8929 68.2754 10.9548 68.3611 11.0358C68.4468 11.1167 68.5147 11.2155 68.5647 11.3322C68.6147 11.4489 68.6397 11.581 68.6397 11.7286V11.8715C68.6397 12.0191 68.6147 12.1512 68.5647 12.2679C68.5147 12.3846 68.4468 12.4834 68.3611 12.5643C68.2754 12.6453 68.1754 12.7072 68.0611 12.75C67.9468 12.7929 67.8254 12.8143 67.6968 12.8143ZM71.0208 11.7286V13.5715H70.1208V10.0286H71.0208V10.5572H71.1494C71.2303 10.3572 71.3613 10.2024 71.5422 10.0929C71.7232 9.98338 71.9351 9.92862 72.1779 9.92862C72.3494 9.92862 72.5101 9.956 72.6601 10.0108C72.8101 10.0655 72.9422 10.15 73.0565 10.2643C73.1708 10.3786 73.2601 10.5239 73.3244 10.7C73.3886 10.8762 73.4208 11.0858 73.4208 11.3286V13.5715H72.5208V11.5572C72.5208 11.3048 72.4601 11.106 72.3386 10.9608C72.2172 10.8155 72.0422 10.7429 71.8136 10.7429C71.547 10.7429 71.3482 10.8322 71.2172 11.0108C71.0863 11.1893 71.0208 11.4286 71.0208 11.7286Z"
        fill="#495567" />
    <path fill-rule="evenodd" clip-rule="evenodd"
        d="M12.3946 10.1694C12.9123 9.91976 13.5059 9.94657 14.0039 10.2464L23.9124 16.0164L21.0744 18.8677L12.3946 10.1694ZM11.4287 11.7296C11.4287 11.4641 11.4876 11.2062 11.5971 10.9744L20.275 19.6708L11.5986 28.3884C11.488 28.1614 11.4287 27.9073 11.4287 27.6407V11.7296ZM21.0756 20.4728L12.4097 29.1798C12.6397 29.2863 12.8844 29.3327 13.1287 29.3327C13.4304 29.3327 13.7313 29.2606 14.004 29.0967L23.9143 23.318L21.0756 20.4728ZM27.6756 18.2076C27.679 18.2095 27.6827 18.2118 27.6861 18.214C28.1978 18.5244 28.5033 19.0674 28.5033 19.6663C28.5033 20.2651 28.1978 20.8081 27.6861 21.1189L24.9263 22.7278L21.8746 19.6697L24.9244 16.6055L27.6756 18.2076Z"
        fill="#495567" />
</svg>

<svg xmlns="http://www.w3.org/2000/svg" width="130" height="40" fill="none" viewBox="0 0 130 40">
    <rect width="130" height="40" fill="#e5ecf4" rx="4" />
    <path fill="#495567" fill-rule="evenodd"
        d="M42.514 30.536q-.486.378-1.457.378a3.2 3.2 0 0 1-1.285-.257 2.9 2.9 0 0 1-1.043-.764 3.7 3.7 0 0 1-.7-1.257q-.258-.75-.258-1.75v-2.343q0-.971.28-1.721.278-.75.77-1.265a3.2 3.2 0 0 1 1.18-.778 4.2 4.2 0 0 1 1.513-.265q.858 0 1.529.279t1.143.771q.471.494.714 1.157.243.665.243 1.422v.171h-1.886v-.171q0-.9-.464-1.364-.465-.465-1.307-.465-.801 0-1.314.536-.515.536-.515 1.836V26.8q0 2.314 1.886 2.314.843 0 1.279-.45t.435-1.207h-2.4v-1.8h4.286v5.057h-1.714V29.6h-.258a1.86 1.86 0 0 1-.657.936m8.498.136a4 4 0 0 1-1.393.242q-.728 0-1.392-.242a3.6 3.6 0 0 1-1.179-.708 3.3 3.3 0 0 1-.814-1.142q-.3-.679-.3-1.565v-.171q0-.872.3-1.55.3-.68.814-1.15a3.5 3.5 0 0 1 1.179-.714 4 4 0 0 1 1.392-.243q.729 0 1.393.243t1.179.714.814 1.15.3 1.55v.171q0 .886-.3 1.564-.3.68-.814 1.143a3.6 3.6 0 0 1-1.179.708M49.62 29.2q-.386 0-.728-.128a1.8 1.8 0 0 1-.6-.372 1.8 1.8 0 0 1-.407-.593q-.15-.35-.15-.793v-.285q0-.444.15-.793t.407-.593q.256-.243.6-.372.342-.128.728-.128t.729.128q.344.129.6.372.257.243.407.593t.15.793v.285q0 .444-.15.793t-.407.593a1.8 1.8 0 0 1-.6.372 2 2 0 0 1-.729.128m9.498 1.472a4 4 0 0 1-1.392.242q-.729 0-1.393-.242a3.6 3.6 0 0 1-1.179-.708 3.3 3.3 0 0 1-.814-1.142q-.3-.679-.3-1.565v-.171q0-.872.3-1.55.3-.68.814-1.15a3.5 3.5 0 0 1 1.179-.714 4 4 0 0 1 1.392-.243q.729 0 1.393.243t1.179.714.814 1.15.3 1.55v.171q0 .886-.3 1.564-.3.68-.814 1.143a3.6 3.6 0 0 1-1.179.708M57.725 29.2q-.386 0-.729-.128a1.8 1.8 0 0 1-.6-.372 1.8 1.8 0 0 1-.407-.593q-.15-.35-.15-.793v-.285q0-.444.15-.793t.407-.593.6-.372.728-.128.73.128.6.372q.255.243.406.593.15.35.15.793v.285q0 .444-.15.793t-.407.593a1.8 1.8 0 0 1-.6.372 2 2 0 0 1-.729.128m11.398 4.057q-.308.315-.793.315h-4.772v-1.715h3.686q.386 0 .386-.428v-1.743h-.257a2.7 2.7 0 0 1-.28.464 1.6 1.6 0 0 1-.428.393 2.2 2.2 0 0 1-.628.271q-.364.1-.879.1-.657 0-1.221-.235a2.75 2.75 0 0 1-.986-.7q-.42-.464-.657-1.136-.236-.672-.236-1.543v-.257q0-.858.25-1.529a3.3 3.3 0 0 1 .686-1.135q.436-.465 1.014-.707a3.1 3.1 0 0 1 1.222-.243q.856 0 1.357.321.5.321.785.907h.258V23.63h1.8v8.828q0 .486-.308.8m-3.38-4.057q-.842 0-1.363-.521-.522-.522-.522-1.422v-.171q0-.9.522-1.422.52-.52 1.364-.521.843 0 1.364.536.522.535.522 1.407v.171q0 .872-.522 1.407-.52.536-1.364.536m11.492-.2v1.714h-6.6V29h2.486V22.43h-2.4v-1.715h4.2V29zm4.876 1.914q.7 0 1.222-.157.521-.157.885-.4t.593-.535q.23-.294.357-.565l-1.542-.857q-.158.33-.515.564-.356.237-1.028.236a2 2 0 0 1-.65-.107 1.8 1.8 0 0 1-.543-.3 1.388 1.388 0 0 1-.522-1.036h5.2V26.8q0-.557-.2-1.15a3.2 3.2 0 0 0-.628-1.086 3.4 3.4 0 0 0-1.086-.814q-.657-.321-1.571-.321-.743 0-1.393.264a3.37 3.37 0 0 0-1.9 1.878 3.8 3.8 0 0 0-.279 1.486v.086q0 .885.265 1.586.264.7.742 1.185.48.486 1.136.743.657.258 1.457.257m-1.714-4.7h3.343q-.086-.5-.536-.828-.45-.33-1.136-.329-.685 0-1.114.35-.428.351-.557.807m8.29 4.5v-3.771h2.03q.77 0 1.342-.257a2.8 2.8 0 0 0 .95-.679q.379-.42.572-.957.192-.535.192-1.093v-.343q0-.542-.192-1.064a2.8 2.8 0 0 0-.572-.928 2.8 2.8 0 0 0-.95-.658q-.57-.25-1.343-.25h-3.914v10zm0-5.571h1.844q.629 0 .992-.343.365-.343.365-.886v-.171q0-.543-.365-.886-.363-.342-.992-.343h-1.843zm12.863 5.571V29h-2.314v-8.286h-4.2v1.715h2.4V29H94.95v1.714zm5.334-.078q-.515.279-1.2.278-.643 0-1.207-.242a2.85 2.85 0 0 1-.993-.715 3.5 3.5 0 0 1-.679-1.143q-.25-.671-.25-1.528v-.229q0-.842.243-1.514t.657-1.143a2.8 2.8 0 0 1 .964-.721q.55-.25 1.179-.25.757 0 1.221.257t.736.8h.257v-.857h1.8v4.942q0 .43.386.43h.271v1.713h-1.228q-.486 0-.793-.285a.97.97 0 0 1-.307-.743h-.257q-.286.671-.8.95m-.8-1.436q-.786 0-1.257-.521-.472-.522-.472-1.422v-.171q0-.9.472-1.422.471-.52 1.257-.521.786 0 1.257.521.471.522.471 1.422v.171q0 .9-.471 1.422-.471.52-1.257.521m11.412 4.057q-.307.315-.793.315h-4.214v-1.715h3.128q.386 0 .386-.428v-1.743h-.257q-.47 1.228-2.029 1.228-.528 0-.985-.171a2.1 2.1 0 0 1-.8-.529 2.5 2.5 0 0 1-.536-.892q-.193-.537-.193-1.265V23.63h1.8v4.057q0 .758.357 1.178.357.422 1.072.422.814 0 1.193-.522.378-.52.378-1.421v-3.714h1.8v8.828q0 .486-.307.8M55.618 9.657q.135 0 .26-.053a.7.7 0 0 0 .218-.143.673.673 0 0 0 .2-.482.67.67 0 0 0-.2-.483.72.72 0 0 0-.478-.196.65.65 0 0 0-.265.054.7.7 0 0 0-.214.142.673.673 0 0 0-.2.482.673.673 0 0 0 .679.68m-15.79 3.825q-.242.19-.728.19-.343 0-.642-.13a1.4 1.4 0 0 1-.522-.381 1.9 1.9 0 0 1-.35-.629 2.7 2.7 0 0 1-.128-.875v-1.171q0-.486.139-.861t.386-.632.589-.39a2.1 2.1 0 0 1 .757-.132q.428 0 .764.14.335.14.572.385.236.248.357.579.12.332.121.71v.086H40.2v-.085q0-.45-.232-.682t-.653-.233a.87.87 0 0 0-.657.268q-.258.268-.258.918v1.057q0 1.158.943 1.157.421 0 .64-.225.217-.224.217-.603H39v-.9h2.143v2.529h-.857v-.558h-.129a.93.93 0 0 1-.328.468m4.2.11a2.1 2.1 0 0 1-.61.08q-.4 0-.73-.13a1.61 1.61 0 0 1-.939-.963 2.2 2.2 0 0 1-.132-.793v-.043q0-.408.14-.743a1.69 1.69 0 0 1 .95-.94 1.8 1.8 0 0 1 .696-.131q.458 0 .786.16.329.16.542.407.214.248.315.543.1.297.1.575v.479h-2.6a.7.7 0 0 0 .26.518.9.9 0 0 0 .272.15 1 1 0 0 0 .325.053q.336 0 .514-.117a.7.7 0 0 0 .257-.283l.772.429q-.065.135-.179.282a1.3 1.3 0 0 1-.296.268q-.183.12-.443.2m.203-2.27h-1.67a.8.8 0 0 1 .278-.404q.213-.175.557-.175.342 0 .568.164.225.165.267.415m4.575 1.392v.857h-1.5a.53.53 0 0 1-.55-.557v-2.128h-1.05v-.857h1.05V8.57h.9v1.458h1.278v.857h-1.278V12.5q0 .214.192.214zm8.297 0v.857h-3.128v-.857h1.2v-1.828H54.06v-.857h2.014v2.685zm3.86.857v-.857h-.957q-.193 0-.193-.214v-1.614h1.279v-.857h-1.279V8.57h-.9v1.458h-1.05v.857h1.05v2.128q0 .244.154.4a.53.53 0 0 0 .396.158zm7.43-.021a2 2 0 0 1-.696.121A2 2 0 0 1 67 13.55a1.8 1.8 0 0 1-.589-.354 1.7 1.7 0 0 1-.407-.571q-.15-.34-.15-.782v-.086q0-.435.15-.775A1.7 1.7 0 0 1 67 10.05q.333-.12.697-.121.364 0 .696.121t.59.357.407.575.15.775v.086q0 .443-.15.782-.15.34-.407.572a1.8 1.8 0 0 1-.59.353m-.696-.736q-.193 0-.365-.064a.876.876 0 0 1-.504-.482 1 1 0 0 1-.074-.397v-.142q0-.222.075-.397a.88.88 0 0 1 .504-.482 1 1 0 0 1 .364-.064q.192 0 .364.064a.876.876 0 0 1 .504.482q.075.175.075.397v.143q0 .221-.075.396a.88.88 0 0 1-.504.482 1 1 0 0 1-.364.064m3.324-1.085v1.843h-.9v-3.543h.9v.528h.128a.94.94 0 0 1 .393-.464q.271-.164.636-.164.257 0 .482.082t.397.253.267.436.097.629v2.242h-.9v-2.014q0-.378-.182-.596-.183-.219-.525-.218-.4 0-.597.268-.195.268-.196.718M12.395 10.17a1.68 1.68 0 0 1 1.609.076l9.908 5.77-2.838 2.852zm-.966 1.56c0-.266.059-.524.168-.756l8.678 8.697-8.676 8.717a1.7 1.7 0 0 1-.17-.747zm9.647 8.743L12.41 29.18c.23.106.474.153.719.153.301 0 .602-.072.875-.236l9.91-5.779zm6.6-2.265.01.006c.512.31.817.853.817 1.452 0 .6-.305 1.142-.817 1.453l-2.76 1.609-3.051-3.058 3.05-3.065z"
        clip-rule="evenodd" />
</svg>
